X:1
T:Cathal McConnell's
%T:The cock and the hen (d'après François)
C:Trad.
R:Slip Jig
D:Lunasa: Otherworld (1999)
S:François Champs (mai 2005)
Q:1/4=120
M:9/8
L:1/8
K:A
% A
|: "F#m" F2F FEF c2A | F2F FEF AFE | F2F FEF c2d | "D" ecA BAF AFE :|
%B
|: "A" ecA AB"D"c dfa | "A" ecA ABc BAF | "A" ecA AB"D"c dcB | cBA BAF AFE :|
